X:15
T:THE IRISH ROVER/The Irish Rover 8 x 32 Reel 1,2,3,4/2,3,4,1
M:4/4
S:Nov. 2002 - PDF File
R:Reel
K:A
E |\
"A" A,2 CD | E2 AB | c2 BA | "D" A2 GF |!
"A" E2 FD  |1 "F#m" C2 EC | "E7" B,4- | B,3 :|2 "E7" C D2 B, | "A" A,4-| A,3 |]!
E |\
"A" A>GA  B |       c2 AA | "E7" B>c BG |    EE FG  | "A"  A>GA B |!
"F#m" c2 A2 | "Bm" B3  G  | "E"  ED CB, |"A" A,2 CD |      E2 AB  |!
c2  AG      | "D" A2 GF   | "A"  E2FG   |    A2 c2  | "E7" B4     | "A"A3     |]
